X: 10742
M: 2/4
L: 1/16
K: C
c2c2 G2G2 | ABcA A2G2 | F2E2 A2G2 | FGEF D2G2 |\
c2c2 G2G2 | ABcA G4 | AcBA AGFE | GFED C2 H:|
[g2e2][g2e2] [e2c2][e2c2] | [a2c2][a2c2]  d4 | c2c2 BAGF | g4 GAB"^D.C."G |]
a2ag f2fe | d2dc BA^GA | d2f2 e2^G2 | A4 "^D.C."z2 |]


